X:1
T:The sidewalks of New York
T:Charles B. Lawlor/James W. Blake
%%score [ 1 2 3 4 ]
L:1/8
M:3/4
K:Ab
V:1 treble-8 nm="Tenor"
V:2 treble-8 nm="Tenor"
V:3 bass nm="Baryton"
V:4 bass nm="Bass"
V:1
 c6 | e6 | d6 | c6 | d4 d2 | d4 d2 | c6- | c2 z2 c2 | d4 d2 | d4 d2 | c2 c4 | f4 e2 | e2 =d4 | %13
w: East|Side,|West|Side,|All a-|round the|town.|_ The|tots sang|"ring- a-|ros- ie,"|"Lon- don|Bridge is|
 =d4 d2 | _d6- | d4 z2 | e4 c2 | d4 e2 | c2 e4- | e4 z2 | d4 d2 | d2 d2 d2 | c6- | c4 z2 | d4 d2 | %25
w: fall- ing|down."|_|Boys and|girls to-|geth- er,|_|Me and|Mam- ie O'|Rorke,|_|Tripped the|
 d4 d2 | c2 c4 | f4 e2 | e2 =d4 | _d4 d2 | c6- | c4 z2 |] %32
w: light fan-|tas- tic|On the|side- walks|of New|York.|_|
V:2
 e6 | c6 | B6 | A6 | B4 A2 | F4 G2 | A6- | A2 z2 A2 | A4 A2 | (B2 A2) F2 | E2 A4 | d4 c2 | c2 B4 | %13
w: East|Side,|West|Side,|All a-|round the|town.|_ The|tots sang|"ring- * a-|ros- ie,"|"Lon- don|Bridge is|
 B4 c2 | B6- | B4 z2 | c4 e2 | B4 c2 | A2 c4- | c4 z2 | A4 A2 | B2 A2 F2 | A6- | A4 z2 | A4 A2 | %25
w: fall- ing|down."|_|Boys and|girls to-|geth- er,|_|Me and|Mam- ie O'|Rorke,|_|Tripped the|
 (B2 A2) F2 | E2 A4 | d4 c2 | c2 B4 | F4 G2 | A6- | A4 z2 |] %32
w: light _ fan-|tas- tic|On the|side- walks|of New|York.|_|
V:3
 A,6 | A,6 | G,6 | E,6 | F,4 F,2 | A,4 E,2 | E,6- | E,2 z2 E,2 | F,4 F,2 | F,4 A,2 | A,2 A,4 | %11
w: East|Side,|West|Side,|All a-|round the|town.|_ The|tots sang|"ring- a-|ros- ie,"|
 =A,4 A,2 | _A,2 A,4 | A,4 F,2 | G,4 F,2 | E,4 z2 | A,4 A,2 | G,4 G,2 | (E,4 F,2) | _G,4 z2 | %20
w: "Lon- don|Bridge is|fall- ing,|fall- ing|down."|Boys and|girls to-|geth- *|er,|
 F,4 F,2 | F,2 F,2 F,2 | E,6- | E,4 z2 | F,4 F,2 | F,4 A,2 | A,2 A,4 | =A,4 A,2 | _A,2 F,4 | %29
w: Me and|Mam- ie O'|Rorke,|_|Tripped the|light fan-|tas- tic|On the|side- walks|
 E,4 E,2 | E,6- | E,4 z2 |] %32
w: of New|York.|_|
V:4
 A,,6 | A,,6 | E,6 | A,,6 | D,4 D,2 | D,4 E,2 | A,,6- | A,,2 z2 A,,2 | D,4 D,2 | D,4 D,2 | %10
w: East|Side,|West|Side,|All a-|round the|town.|_ The|tots sang|"ring- a-|
 A,,2 E,4 | F,4 F,2 | B,,2 B,,4 | B,,4 B,,2 | E,6- | E,4 z2 | A,,4 A,,2 | E,4 E,2 | A,,2 A,,4- | %19
w: ros- ie,"|"Lon- don|Bridge is|fall- ing|down."|_|Boys and|girls to-|geth- er,|
 A,,4 z2 | D,4 D,2 | D,2 D,2 D,2 | A,,6- | A,,4 z2 | D,4 D,2 | D,4 D,2 | A,,2 E,4 | F,4 F,2 | %28
w: _|Me and|Mam- ie O'|Rorke,|_|Tripped the|light fan-|tas- tic|On the|
 B,,2 B,,4 | B,,4 E,,2 | A,,6- | A,,4 z2 |] %32
w: side- walks|of New|York.|_|

